X: 22055
T: Knockawhinna, The
R: jig
M: 6/8
K: Gmajor
|:DGF ~G3|BdG ABc|dgf ded|ded cAF|
DGF ~G3|BdG ABc|dgf ded|1 cAF G2F:|2 cAF GFG||
|:AFD D2e|faf ge^c|d2f ecA|GAB AFG|
AFD D2e|faf ge^c|afa ge^c|1 d3 d3:|2 d3 c3||
|:~B3 GBd|~g3 ece|dBd cAc|BGB AFD|
d^cd GBd|gba gfa|gfd cAF|1 G3 G2c:|2 G3 G3||

